X: 2
T: Tie The Bonnet
R: reel
M: 4/4
L: 1/8
K: Bmin
|: B2 ef efge | fefg afdf | g2 bg faaf | egfd edBA |B2 ef efge | fefg afdf | g2 bg faaf | edfe dBAF :||: E2 BA BAGF | E3 G FDDF | EB B2 BABd | egfe dBAF |E3 B BAGF | E3 G FDDF | EB B2 BABd | egfd Beef :||:eB B2 efge | d2 fg afdf | gfge f3 d | egfd edBA |B2 ef efge | fefg afdf | g2 bg faaf | edfe dBAF :||: E3 A B2 GF | EDEG FDDF | EB B2 BABd | egfe dBAF |E3 B BAGF | E3 G FDDF | EB B2 BABd | egfd Beef :|


Tune 7222	Setting 18755

